X: 1
T: Campbell River Jig
C: Dean Kenty
R: jig
N: Named for the town and river on Vancouver Island, British Columbia, Canada
Z: 2011 John Chambers <jc:trillian.mit.edu>
S: printed MS of unknown origin
B: Portland Collection v.1
M: 6/8
L: 1/8
K: Bm
Bc |\
"Bm"dcd "A"cBc | "Bm"BFE DB,C | "Bm"DEF Bcd | "A"cAA ABc |\
"Bm"dcd "A"cBc | "Bm"BFE DEF | "Bm"Bcd "A"cAc | "Bm"B3 z :|
|: Bc |\
"Bm"dcd BAB | "A"ede ABc | "Bm"dcd Bcd | "A"e3 cde |\
"D"fed "Bm"BFE | "G"DB,C "D"DEF | "Bm"Bcd "A"cAc | "Bm"B3 z :|
